assets/static/svgs/currencies/icon-poland-zloty.svg

<svg width="1em" height="1em"  viewBox="0 0 24 24" fill="none" xmlns="http://www.w3.org/2000/svg">
<symbol id="item"
width="1em"
height="1em"
viewBox="0 0 24 24"
fill="none"
>
 <path d="M12 24C18.6274 24 24 18.6274 24 12C24 5.37258 18.6274 0 12 0C5.37258 0 0 5.37258 0 12C0 18.6274 5.37258 24 12 24Z" fill="#E52931"/> <path d="M12.8 16.1998H6.5V15.2998L10 10.7998H6.8V9.1998H12.7V10.2998L9.4 14.6998H12.8V16.1998Z" fill="#FCFCFC"/> <path d="M17.2 10.9998L16.3 11.5998V16.1998H14.1V12.9998L13.2 13.5998V11.7998L14.1 11.1998V5.7998H16.3V9.7998L17.2 9.1998V10.9998Z" fill="#FCFCFC"/> 
</symbol>
</svg>

<svg width="1em" height="1em"    viewBox="0 0 24 24" fill="none" xmlns="http://www.w3.org/2000/svg">
<symbol id="item"
width="1em"
height="1em"
viewBox="0 0 24 24"
fill="none"
>
<path d="M12 24c6.627 0 12-5.373 12-12S18.627 0 12 0 0 5.373 0 12s5.373 12 12 12Z" fill="#E52931"/><path d="M12.8 16.2H6.5v-.9l3.5-4.5H6.8V9.2h5.9v1.1l-3.3 4.4h3.4v1.5ZM17.2 11l-.9.6v4.6h-2.2V13l-.9.6v-1.8l.9-.6V5.8h2.2v4l.9-.6V11Z" fill="#FCFCFC"/>
</symbol>
</svg>
